src/mbxdull/icons/rail-15.svg

<svg xmlns="http://www.w3.org/2000/svg" viewBox="0 0 21 21" height="21" width="21"><title>rail-15.svg</title><rect fill="none" x="0" y="0" width="21" height="21"></rect><path fill="#ffffff" transform="translate(3 3)" d="M 3 1 C 2.4477 1 2 1.4477 2 2 L 2 10 C 2 10.5523 2.4477 11 3 11 L 12 11 C 12.5523 11 13 10.5523 13 10 L 13 2 C 13 1.4477 12.5523 1 12 1 L 3 1 z M 5.75 1.5 L 5.7597656 1.5 L 9.2597656 1.5 C 9.3978656 1.5 9.5097656 1.6119 9.5097656 1.75 C 9.5097656 1.8881 9.3978656 2 9.2597656 2 L 5.75 2 C 5.6119 2 5.5 1.8881 5.5 1.75 C 5.5 1.6119 5.6119 1.5 5.75 1.5 z M 3.5 3 L 7 3 L 7 7 L 3.5 7 C 3.2239 7 3 6.7761 3 6.5 L 3 3.5 C 3 3.2239 3.2239 3 3.5 3 z M 8 3 L 11.5 3 C 11.7761 3 12 3.2239 12 3.5 L 12 6.5 C 12 6.7761 11.7761 7 11.5 7 L 8 7 L 8 3 z M 5 8 C 5.5523 8 6 8.4477 6 9 C 6 9.5523 5.5523 10 5 10 C 4.4477 10 4 9.5523 4 9 C 4 8.4477 4.4477 8 5 8 z M 10 8 C 10.5523 8 11 8.4477 11 9 C 11 9.5523 10.5523 10 10 10 C 9.4477 10 9 9.5523 9 9 C 9 8.4477 9.4477 8 10 8 z M 10.445312 11.994141 C 10.380597 11.999652 10.314981 12.018581 10.253906 12.050781 C 10.030606 12.168381 9.9302313 12.433922 10.019531 12.669922 L 10.189453 13 L 4.8105469 13 L 4.9394531 12.730469 C 5.0371531 12.472169 4.9067375 12.183637 4.6484375 12.085938 C 4.4124375 11.996738 4.1468969 12.097113 4.0292969 12.320312 L 3.0292969 14.320312 C 3.0080969 14.377912 2.9986 14.4387 3 14.5 C 3 14.7761 3.2239 15 3.5 15 C 3.6802 14.999 3.8450875 14.899434 3.9296875 14.740234 L 3.9296875 14.689453 L 4 14.689453 L 4.3105469 14 L 10.689453 14 L 11 14.689453 L 11 14.740234 C 11.0846 14.899434 11.249488 14.999 11.429688 15 C 11.705787 15 11.929688 14.7761 11.929688 14.5 C 11.949587 14.4212 11.949587 14.338566 11.929688 14.259766 L 10.929688 12.259766 C 10.833163 12.076541 10.639459 11.977608 10.445312 11.994141 z " style="stroke-linejoin:round;stroke-miterlimit:4;" stroke="#ffffff" stroke-width="2"></path><path fill="#8a7862" transform="translate(3 3)" d="M 3 1 C 2.4477 1 2 1.4477 2 2 L 2 10 C 2 10.5523 2.4477 11 3 11 L 12 11 C 12.5523 11 13 10.5523 13 10 L 13 2 C 13 1.4477 12.5523 1 12 1 L 3 1 z M 5.75 1.5 L 5.7597656 1.5 L 9.2597656 1.5 C 9.3978656 1.5 9.5097656 1.6119 9.5097656 1.75 C 9.5097656 1.8881 9.3978656 2 9.2597656 2 L 5.75 2 C 5.6119 2 5.5 1.8881 5.5 1.75 C 5.5 1.6119 5.6119 1.5 5.75 1.5 z M 3.5 3 L 7 3 L 7 7 L 3.5 7 C 3.2239 7 3 6.7761 3 6.5 L 3 3.5 C 3 3.2239 3.2239 3 3.5 3 z M 8 3 L 11.5 3 C 11.7761 3 12 3.2239 12 3.5 L 12 6.5 C 12 6.7761 11.7761 7 11.5 7 L 8 7 L 8 3 z M 5 8 C 5.5523 8 6 8.4477 6 9 C 6 9.5523 5.5523 10 5 10 C 4.4477 10 4 9.5523 4 9 C 4 8.4477 4.4477 8 5 8 z M 10 8 C 10.5523 8 11 8.4477 11 9 C 11 9.5523 10.5523 10 10 10 C 9.4477 10 9 9.5523 9 9 C 9 8.4477 9.4477 8 10 8 z M 10.445312 11.994141 C 10.380597 11.999652 10.314981 12.018581 10.253906 12.050781 C 10.030606 12.168381 9.9302313 12.433922 10.019531 12.669922 L 10.189453 13 L 4.8105469 13 L 4.9394531 12.730469 C 5.0371531 12.472169 4.9067375 12.183637 4.6484375 12.085938 C 4.4124375 11.996738 4.1468969 12.097113 4.0292969 12.320312 L 3.0292969 14.320312 C 3.0080969 14.377912 2.9986 14.4387 3 14.5 C 3 14.7761 3.2239 15 3.5 15 C 3.6802 14.999 3.8450875 14.899434 3.9296875 14.740234 L 3.9296875 14.689453 L 4 14.689453 L 4.3105469 14 L 10.689453 14 L 11 14.689453 L 11 14.740234 C 11.0846 14.899434 11.249488 14.999 11.429688 15 C 11.705787 15 11.929688 14.7761 11.929688 14.5 C 11.949587 14.4212 11.949587 14.338566 11.929688 14.259766 L 10.929688 12.259766 C 10.833163 12.076541 10.639459 11.977608 10.445312 11.994141 z "></path></svg>

<svg xmlns="http://www.w3.org/2000/svg" viewBox="0 0 22 22" height="22" width="22"><title>rail-15.svg</title><rect fill="none" x="0" y="0" width="22" height="22"></rect><path fill="#454545" transform="translate(3 3)" d="M11.93,14.26L11.93,14.26l-1-2l0,0c-0.1287-0.2443-0.4311-0.338-0.6754-0.2092C10.0313,12.1684,9.9307,12.434,10.02,12.67
	l0,0l0,0L10.19,13H4.81l0.13-0.27l0,0l0,0c0.0977-0.2583-0.0325-0.5469-0.2908-0.6446C4.4132,11.9962,4.1476,12.0968,4.03,12.32l0,0
	l-1,2l0,0C3.0088,14.3776,2.9986,14.4387,3,14.5C3,14.7761,3.2239,15,3.5,15c0.1802-0.001,0.3454-0.1008,0.43-0.26l0,0v-0.05H4
	L4.31,14h6.38L11,14.69l0,0v0.05l0,0c0.0846,0.1592,0.2498,0.259,0.43,0.26c0.2761,0,0.5-0.2239,0.5-0.5
	C11.9499,14.4212,11.9499,14.3388,11.93,14.26z" style="stroke-linejoin:round;stroke-miterlimit:4px;" stroke="#454545" stroke-width="3"></path><path fill="#454545" transform="translate(3 3)" d="M12,1H3C2.4477,1,2,1.4477,2,2v8c0,0.5523,0.4477,1,1,1h9c0.5523,0,1-0.4477,1-1V2C13,1.4477,12.5523,1,12,1z M5.76,1.5
		h3.5c0.1381,0,0.25,0.1119,0.25,0.25S9.3981,2,9.26,2H5.75C5.6119,2,5.5,1.8881,5.5,1.75S5.6119,1.5,5.75,1.5H5.76z M5,10
		c-0.5523,0-1-0.4477-1-1s0.4477-1,1-1s1,0.4477,1,1S5.5523,10,5,10z M7,7H3.5C3.2239,7,3,6.7761,3,6.5v-3C3,3.2239,3.2239,3,3.5,3
		H7V7z M10,10c-0.5523,0-1-0.4477-1-1s0.4477-1,1-1s1,0.4477,1,1S10.5523,10,10,10z M12,6.5C12,6.7761,11.7761,7,11.5,7H8V3h3.5
		C11.7761,3,12,3.2239,12,3.5V6.5z" style="stroke-linejoin:round;stroke-miterlimit:4px;" stroke="#454545" stroke-width="3"></path><path fill="#454545" transform="translate(3 3)" d="M12,1H3C2.4477,1,2,1.4477,2,2v8c0,0.5523,0.4477,1,1,1h9c0.5523,0,1-0.4477,1-1V2C13,1.4477,12.5523,1,12,1z M5.76,1.5
		h3.5c0.1381,0,0.25,0.1119,0.25,0.25S9.3981,2,9.26,2H5.75C5.6119,2,5.5,1.8881,5.5,1.75S5.6119,1.5,5.75,1.5H5.76z M5,10
		c-0.5523,0-1-0.4477-1-1s0.4477-1,1-1s1,0.4477,1,1S5.5523,10,5,10z M7,7H3.5C3.2239,7,3,6.7761,3,6.5v-3C3,3.2239,3.2239,3,3.5,3
		H7V7z M10,10c-0.5523,0-1-0.4477-1-1s0.4477-1,1-1s1,0.4477,1,1S10.5523,10,10,10z M12,6.5C12,6.7761,11.7761,7,11.5,7H8V3h3.5
		C11.7761,3,12,3.2239,12,3.5V6.5z" style="stroke-linejoin:round;stroke-miterlimit:4px;" stroke="#454545" stroke-width="3"></path><path fill="#d9d9d9" transform="translate(3 3)" d="M11.93,14.26L11.93,14.26l-1-2l0,0c-0.1287-0.2443-0.4311-0.338-0.6754-0.2092C10.0313,12.1684,9.9307,12.434,10.02,12.67
	l0,0l0,0L10.19,13H4.81l0.13-0.27l0,0l0,0c0.0977-0.2583-0.0325-0.5469-0.2908-0.6446C4.4132,11.9962,4.1476,12.0968,4.03,12.32l0,0
	l-1,2l0,0C3.0088,14.3776,2.9986,14.4387,3,14.5C3,14.7761,3.2239,15,3.5,15c0.1802-0.001,0.3454-0.1008,0.43-0.26l0,0v-0.05H4
	L4.31,14h6.38L11,14.69l0,0v0.05l0,0c0.0846,0.1592,0.2498,0.259,0.43,0.26c0.2761,0,0.5-0.2239,0.5-0.5
	C11.9499,14.4212,11.9499,14.3388,11.93,14.26z"></path><path fill="#d9d9d9" transform="translate(3 3)" d="M12,1H3C2.4477,1,2,1.4477,2,2v8c0,0.5523,0.4477,1,1,1h9c0.5523,0,1-0.4477,1-1V2C13,1.4477,12.5523,1,12,1z M5.76,1.5
		h3.5c0.1381,0,0.25,0.1119,0.25,0.25S9.3981,2,9.26,2H5.75C5.6119,2,5.5,1.8881,5.5,1.75S5.6119,1.5,5.75,1.5H5.76z M5,10
		c-0.5523,0-1-0.4477-1-1s0.4477-1,1-1s1,0.4477,1,1S5.5523,10,5,10z M7,7H3.5C3.2239,7,3,6.7761,3,6.5v-3C3,3.2239,3.2239,3,3.5,3
		H7V7z M10,10c-0.5523,0-1-0.4477-1-1s0.4477-1,1-1s1,0.4477,1,1S10.5523,10,10,10z M12,6.5C12,6.7761,11.7761,7,11.5,7H8V3h3.5
		C11.7761,3,12,3.2239,12,3.5V6.5z"></path><path fill="#d9d9d9" transform="translate(3 3)" d="M12,1H3C2.4477,1,2,1.4477,2,2v8c0,0.5523,0.4477,1,1,1h9c0.5523,0,1-0.4477,1-1V2C13,1.4477,12.5523,1,12,1z M5.76,1.5
		h3.5c0.1381,0,0.25,0.1119,0.25,0.25S9.3981,2,9.26,2H5.75C5.6119,2,5.5,1.8881,5.5,1.75S5.6119,1.5,5.75,1.5H5.76z M5,10
		c-0.5523,0-1-0.4477-1-1s0.4477-1,1-1s1,0.4477,1,1S5.5523,10,5,10z M7,7H3.5C3.2239,7,3,6.7761,3,6.5v-3C3,3.2239,3.2239,3,3.5,3
		H7V7z M10,10c-0.5523,0-1-0.4477-1-1s0.4477-1,1-1s1,0.4477,1,1S10.5523,10,10,10z M12,6.5C12,6.7761,11.7761,7,11.5,7H8V3h3.5
		C11.7761,3,12,3.2239,12,3.5V6.5z"></path></svg>
